X:1
T: Fenella Smith's Hornpipe
C:
R:Reel
Q: 232
K:G
M:4/4
L:1/8
|:d|g2 fg ed cB|g2 fg ea fd|g2 gf ed cB|ed cB cA FD|
g2 fg ed cB|g2 fg ea fd|g2 gf ed cB|ed cB AF D2|
dB Gd BG ec|dB Gd BG AF|dB Gd BG ec|dg dc BA G2|
dB Gd BG ec|dB Gd BG AF|EF GA Bc de|fe df g2-g:|
